X: 2938
T:Moving Cloud, The
M:C|
L:1/8
C:Nellie Boyle
R:reel
K:G
DGBG EGcG|DGBG AGEG|cEGc Bdgb|aged cEGE|
!DGBG EGcG|DGBG AGEG|cBAc BAGB|1AGEF G3E:|2AGEF GABc|
!|:d2bd adgd|d2bd adgd|e2c'e beae|e2c'e beae|
!d2bd adgd|d2bd adgd|c'bag bage|1dBAB GABc:|2dBAB G3c|
!|:B~d3 edBA|B~d3 edBd|ce e/2e/2e fe/2e/2e|g/2f/2e fd edBA|
!B~d3 edBA|B~d3 edBd|c/2B/2A B/2A/2G AFGF|1EDEF G3c:|2EDEF G3E||
